X:1
T: Miss Grant's Jig
C:
R:Jig
Q:180
K:Am
M:6/8
L:1/16
G2|E2A2B2 A2E2A2|ABc2A2 B2G2E2|D2G2G2 G4A2|GAB2G2 A2G2E2|E2A2B2 A2G2A2|B2A2G2 B2c2d2|e^fg2e2 d2c2B2|c2A2A2 A4G2|
E2A2B2 A2E2A2|ABc2A2 B2G2E2|D2G2G2 G4A2|GAB2G2 A2G2E2|E2A2B2 A2G2A2|B2A2G2 B2c2d2|e^fg2e2 d2c2B2|c2A2A2 A4d2|
e2c2A2 A4B2|cBc2d2 e2d2c2|Bcd2B2 G4B2|G2A2G2 B2c2d2|cde2c2 A4B2|c2B2A2 a4g2|e2c2e2 d2c2B2|c2A2A2 A4d2|
e2c2A2 A4B2|cBc2d2 e2d2c2|Bcd2B2 G4B2|G2A2G2 B2c2d2|cde2c2 A4B2|c2B2A2 a4g2|e2c2e2 d2c2B2|c2A2A2 A4||
